;FLAVOR:Marlin
;TIME:3657
;Filament used: 0.821552m
;Layer height: 0.12
;MINX:89.438
;MINY:87.273
;MINZ:0.12
;MAXX:169.44
;MAXY:127.275
;MAXZ:2.24
;TARGET_MACHINE.NAME:Creality Ender-3
;Generated with Cura_SteamEngine 5.7.1
M140 S60
M105
M190 S60
M104 S210
M105
M109 S210
M82 ;absolute extrusion mode
; Ender 3 Custom Start G-code
G92 E0 ; Reset Extruder
G28 ; Home all axes
G1 Z2.0 F3000 ; Move Z Axis up little to prevent scratching of Heat Bed
G1 X0.1 Y20 Z0.3 F5000.0 ; Move to start position
G1 X0.1 Y200.0 Z0.3 F1500.0 E15 ; Draw the first line
G1 X0.4 Y200.0 Z0.3 F5000.0 ; Move to side a little
G1 X0.4 Y20 Z0.3 F1500.0 E30 ; Draw the second line
G92 E0 ; Reset Extruder
G1 Z2.0 F3000 ; Move Z Axis up little to prevent scratching of Heat Bed
G1 X5 Y20 Z0.3 F5000.0 ; Move over to prevent blob squish
G92 E0
G92 E0
G1 F2700 E-5
;LAYER_COUNT:17
;LAYER:0
M107
G1 F300 Z0.32
G0 F6000 X92.731 Y90.396 Z0.32
;TYPE:SKIRT
G1 F300 Z0.12
G1 F2700 E0
G1 F600 X93.432 Y89.771 E0.01874
G1 X94.185 Y89.211 E0.03747
G1 X94.954 Y88.737 E0.0555
G1 X95.688 Y88.36 E0.07196
G1 X96.516 Y87.998 E0.09
G1 X97.439 Y87.689 E0.10942
G1 X98.352 Y87.472 E0.12815
G1 X99.246 Y87.341 E0.14618
G1 X100.174 Y87.285 E0.16473
G1 X101.038 Y87.273 E0.18198
G1 X158.025 Y87.278 E1.31921
G1 X158.844 Y87.291 E1.33556
G1 X159.78 Y87.348 E1.35427
G1 X160.708 Y87.488 E1.373
G1 X161.621 Y87.709 E1.39175
G1 X162.476 Y87.998 E1.40976
G1 X163.368 Y88.388 E1.42919
G1 X164.16 Y88.823 E1.44722
G1 X164.968 Y89.366 E1.46665
G1 X165.698 Y89.957 E1.48539
G1 X166.371 Y90.61 E1.5041
G1 X166.985 Y91.32 E1.52284
G1 X167.532 Y92.078 E1.54149
G1 X167.972 Y92.802 E1.5584
G1 X168.409 Y93.632 E1.57712
G1 X168.771 Y94.497 E1.59583
G1 X169.055 Y95.392 E1.61457
G1 X169.26 Y96.308 E1.6333
G1 X169.379 Y97.203 E1.65132
G1 X169.42 Y97.957 E1.66639
G1 X169.44 Y99.125 E1.6897
G1 X169.435 Y115.895 E2.02436
G1 X169.423 Y116.593 E2.03829
G1 X169.365 Y117.529 E2.05701
G1 X169.224 Y118.458 E2.07576
G1 X169.001 Y119.369 E2.09448
G1 X168.699 Y120.258 E2.11321
G1 X168.309 Y121.142 E2.13249
G1 X167.866 Y121.97 E2.15123
G1 X167.372 Y122.726 E2.16926
G1 X166.77 Y123.49 E2.18867
G1 X166.126 Y124.173 E2.2074
G1 X165.451 Y124.773 E2.22542
G1 X164.668 Y125.353 E2.24487
G1 X163.871 Y125.84 E2.26351
G1 X163.19 Y126.188 E2.27877
G1 X162.362 Y126.55 E2.2968
G1 X161.439 Y126.859 E2.31623
G1 X160.526 Y127.076 E2.33496
G1 X159.632 Y127.207 E2.35299
G1 X158.704 Y127.263 E2.37154
G1 X157.84 Y127.275 E2.38878
G1 X100.861 Y127.27 E3.52586
G1 X100.143 Y127.259 E3.54019
G1 X99.206 Y127.203 E3.55892
G1 X98.278 Y127.064 E3.57765
G1 X97.364 Y126.843 E3.59641
G1 X96.475 Y126.542 E3.61514
G1 X95.569 Y126.143 E3.6349
G1 X94.741 Y125.7 E3.65364
G1 X93.956 Y125.185 E3.67238
G1 X93.221 Y124.603 E3.69109
G1 X92.538 Y123.958 E3.70983
G1 X91.917 Y123.256 E3.72854
G1 X91.359 Y122.501 E3.74727
G1 X90.872 Y121.704 E3.76591
G1 X90.524 Y121.024 E3.78116
G1 X90.163 Y120.196 E3.79918
G1 X89.854 Y119.273 E3.81861
G1 X89.637 Y118.359 E3.83735
G1 X89.505 Y117.466 E3.85537
G1 X89.449 Y116.518 E3.87432
G1 X89.438 Y115.654 E3.89156
G1 X89.444 Y98.585 E4.23219
G1 X89.457 Y97.927 E4.24533
G1 X89.518 Y96.99 E4.26406
G1 X89.661 Y96.063 E4.28278
G1 X89.885 Y95.152 E4.3015
G1 X90.176 Y94.297 E4.31953
G1 X90.544 Y93.459 E4.33779
G1 X90.997 Y92.605 E4.35708
G1 X91.509 Y91.817 E4.37584
G1 X92.066 Y91.106 E4.39386
G1 X92.731 Y90.396 E4.41327
G0 F6000 X92.998 Y90.694
G1 F600 X93.671 Y90.092 E4.43129
G1 X94.395 Y89.552 E4.44932
G1 X95.164 Y89.078 E4.46735
G1 X95.848 Y88.727 E4.48269
G1 X96.676 Y88.365 E4.50072
G1 X97.532 Y88.078 E4.51874
G1 X98.41 Y87.868 E4.53675
G1 X99.304 Y87.737 E4.55479
G1 X100.18 Y87.685 E4.5723
G1 X101.038 Y87.673 E4.58942
G1 X158.019 Y87.678 E5.72654
G1 X158.82 Y87.69 E5.74253
G1 X159.721 Y87.744 E5.76054
G1 X160.615 Y87.877 E5.77858
G1 X161.493 Y88.088 E5.7966
G1 X162.348 Y88.377 E5.81461
G1 X163.175 Y88.739 E5.83262
G1 X163.967 Y89.174 E5.85065
G1 X164.717 Y89.677 E5.86868
G1 X165.42 Y90.244 E5.8867
G1 X166.069 Y90.872 E5.90472
G1 X166.661 Y91.554 E5.92274
G1 X167.19 Y92.286 E5.94077
G1 X167.618 Y92.989 E5.95719
G1 X168.04 Y93.787 E5.97521
G1 X168.39 Y94.619 E5.99322
G1 X168.665 Y95.48 E6.01126
G1 X168.863 Y96.361 E6.02928
G1 X168.982 Y97.256 E6.04729
G1 X169.02 Y97.964 E6.06144
G1 X169.04 Y99.125 E6.08462
G1 X169.035 Y115.889 E6.41916
G1 X169.024 Y116.569 E6.43273
G1 X168.969 Y117.47 E6.45075
G1 X168.835 Y118.364 E6.46879
G1 X168.622 Y119.241 E6.4868
G1 X168.333 Y120.097 E6.50483
G1 X167.956 Y120.954 E6.52351
G1 X167.531 Y121.751 E6.54153
G1 X167.037 Y122.507 E6.55956
G1 X166.479 Y123.216 E6.57756
G1 X165.86 Y123.874 E6.59559
G1 X165.185 Y124.474 E6.61361
G1 X164.459 Y125.012 E6.63165
G1 X163.689 Y125.484 E6.64967
G1 X163.03 Y125.821 E6.66444
G1 X162.202 Y126.183 E6.68247
G1 X161.346 Y126.47 E6.70049
G1 X160.468 Y126.68 E6.71851
G1 X159.574 Y126.811 E6.73654
G1 X158.698 Y126.863 E6.75405
G1 X157.84 Y126.875 E6.77117
G1 X100.867 Y126.87 E7.90813
G1 X100.166 Y126.86 E7.92212
G1 X99.264 Y126.807 E7.94015
G1 X98.371 Y126.675 E7.95817
G1 X97.492 Y126.464 E7.97621
G1 X96.636 Y126.176 E7.99423
G1 X95.757 Y125.79 E8.01339
G1 X94.96 Y125.365 E8.03141
G1 X94.204 Y124.871 E8.04944
G1 X93.495 Y124.312 E8.06745
G1 X92.837 Y123.693 E8.08548
G1 X92.238 Y123.018 E8.10349
G1 X91.7 Y122.292 E8.12152
G1 X91.228 Y121.522 E8.13955
G1 X90.891 Y120.864 E8.1543
G1 X90.53 Y120.036 E8.17233
G1 X90.243 Y119.18 E8.19034
G1 X90.033 Y118.301 E8.20838
G1 X89.901 Y117.408 E8.22639
G1 X89.849 Y116.513 E8.24428
G1 X89.838 Y115.654 E8.26143
G1 X89.844 Y98.592 E8.60192
G1 X89.856 Y97.952 E8.61469
G1 X89.913 Y97.05 E8.63273
G1 X90.049 Y96.158 E8.65074
G1 X90.264 Y95.281 E8.66876
G1 X90.555 Y94.426 E8.68678
G1 X90.91 Y93.62 E8.70435
G1 X91.333 Y92.822 E8.72238
G1 X91.824 Y92.064 E8.7404
G1 X92.381 Y91.353 E8.75843
G1 X92.998 Y90.694 E8.77644
G1 F2700 E3.77644
G1 F300 Z0.32
;MESH:Fondo.stl
G0 F6000 X151.444 Y113.722 Z0.32
;TYPE:WALL-OUTER
G1 F300 Z0.12
G1 F2700 E8.77644
G1 F600 X151.6 Y113.796 E8.77989
G1 X157.44 Y113.796 E8.89643
G1 X157.561 Y113.757 E8.89897
G1 X157.638 Y113.631 E8.90191
G1 X157.64 Y112.652 E8.92145
G1 X157.561 Y112.491 E8.92503
G1 X157.44 Y112.452 E8.92757
G1 X156.25 Y112.452 E8.95131
G1 X156.023 Y112.402 E8.95595
G1 X155.933 Y112.328 E8.95828
G1 X155.826 Y112.079 E8.96369
G1 X155.776 Y111.763 E8.97007
G1 X155.777 Y100.884 E9.18717
G1 X155.731 Y100.757 E9.18987
G1 X155.576 Y100.684 E9.19329
G1 X153.949 Y100.687 E9.22576
G1 X153.848 Y100.736 E9.228
G1 X152.637 Y101.848 E9.26081
G1 X152.21 Y102.196 E9.2718
G1 X151.922 Y102.4 E9.27884
G1 X151.405 Y102.715 E9.29092
G1 X151.104 Y102.854 E9.29754
G1 X150.721 Y102.991 E9.30566
G1 X150.612 Y103.109 E9.30886
G1 X150.65 Y103.671 E9.3201
G1 X150.801 Y104.072 E9.32866
G1 X151.016 Y104.388 E9.33628
G1 X151.275 Y104.593 E9.34287
G1 X151.631 Y104.676 E9.35017
G1 X151.992 Y104.623 E9.35745
G1 X152.313 Y104.406 E9.36518
G1 X152.555 Y104.189 E9.37167
G1 X152.794 Y103.922 E9.37882
G1 X153.122 Y103.504 E9.38942
G1 X153.264 Y103.292 E9.39452
G1 X153.264 Y111.731 E9.56293
G1 X153.205 Y112.079 E9.56997
G1 X153.12 Y112.307 E9.57483
G1 X152.884 Y112.452 E9.58035
G1 X151.555 Y112.457 E9.60687
G1 X151.4 Y112.571 E9.61071
G1 X151.4 Y113.614 E9.63153
G1 X151.444 Y113.722 E9.63386
G1 F2700 E4.63386
G1 F300 Z0.32
G0 F6000 X139.178 Y100.948 Z0.32
G1 F300 Z0.12
G1 F2700 E9.63386
G1 F418.1 X139.18 Y101.929 E9.66195
G1 F2700 E4.66195
G1 F300 Z0.32
G0 F6000 X131.843 Y113.721 Z0.32
G1 F300 Z0.12
G1 F2700 E9.66195
G1 F600 X132 Y113.796 E9.66542
G1 X136.927 Y113.794 E9.76374
G1 X137.035 Y113.737 E9.76618
G1 X137.092 Y113.614 E9.76889
G1 X137.092 Y112.589 E9.78934
G1 X136.968 Y112.453 E9.79301
G1 X136.089 Y112.443 E9.81056
G1 X135.903 Y112.306 E9.81517
G1 X135.812 Y112.059 E9.82042
G1 X135.773 Y111.762 E9.8264
G1 X135.769 Y102.233 E10.01656
G1 X136.892 Y102.236 E10.03897
G1 X137.151 Y102.309 E10.04434
G1 X137.35 Y102.432 E10.04901
G1 X137.575 Y102.746 E10.05672
G1 X137.654 Y103.119 E10.06433
G1 X137.778 Y104.431 E10.09063
G1 X137.822 Y104.525 E10.0927
G1 X137.921 Y104.596 E10.09513
G1 X138.892 Y104.596 E10.11451
G1 X139.013 Y104.557 E10.11704
G1 X139.089 Y104.431 E10.11998
G1 X139.092 Y102.452 E10.15947
G1 F491.8 X139.18 Y101.929 E10.17238
G1 X139.464 Y102.08 E10.18022
G1 F600 X140.069 Y102.08 E10.19229
G1 X140.352 Y102.168 E10.1982
G1 X140.523 Y102.416 E10.20421
G1 X140.572 Y102.755 E10.21105
G1 X140.576 Y111.675 E10.38906
G1 X140.521 Y112.114 E10.39789
G1 X140.406 Y112.329 E10.40275
G1 X140.326 Y112.395 E10.40482
G1 X140.077 Y112.452 E10.40992
G1 X139.389 Y112.452 E10.42365
G1 X139.264 Y112.589 E10.42735
G1 X139.264 Y113.666 E10.44884
G1 X139.4 Y113.796 E10.4526
G1 X143.195 Y113.794 E10.52833
G1 X143.311 Y113.729 E10.53099
G1 X143.36 Y113.646 E10.53291
G1 X143.36 Y112.572 E10.55434
G1 X143.204 Y112.452 E10.55827
G1 X142.384 Y112.444 E10.57463
G1 X142.248 Y112.371 E10.57771
G1 X142.083 Y112.06 E10.58474
G1 X142.04 Y111.761 E10.59077
G1 X142.036 Y104.599 E10.73369
G1 X147.219 Y113.756 E10.94367
G1 X147.36 Y113.796 E10.9466
G1 X148.699 Y113.794 E10.97332
G1 X148.82 Y113.722 E10.97613
G1 X148.864 Y113.614 E10.97846
G1 X148.868 Y102.912 E11.19203
G1 X148.898 Y102.534 E11.19959
G1 X149.02 Y102.222 E11.20628
G1 X149.149 Y102.13 E11.20944
G1 X149.353 Y102.08 E11.21363
G1 X150.033 Y102.08 E11.2272
G1 X150.126 Y102.018 E11.22943
G1 X150.18 Y101.899 E11.23204
G1 X150.179 Y100.92 E11.25158
G1 X150.092 Y100.781 E11.25485
G1 X149.98 Y100.748 E11.25718
G1 X146.245 Y100.75 E11.33172
G1 X146.08 Y100.87 E11.33579
G1 X146.08 Y101.929 E11.35692
G1 X146.127 Y102.01 E11.35879
G1 X146.239 Y102.076 E11.36138
G1 X146.891 Y102.08 E11.3744
G1 X147.165 Y102.161 E11.3801
G1 X147.274 Y102.273 E11.38322
G1 X147.372 Y102.506 E11.38826
G1 X147.404 Y102.815 E11.39446
G1 X147.404 Y109.03 E11.51849
G1 X142.741 Y100.788 E11.70746
G1 X142.6 Y100.748 E11.71039
G1 X139.404 Y100.75 E11.77417
G1 F493.8 X139.178 Y100.948 E11.78145
G1 X138.953 Y100.751 E11.78871
G1 F600 X129.961 Y100.75 E11.96815
G1 X129.853 Y100.807 E11.97059
G1 X129.796 Y100.903 E11.97282
G1 X129.796 Y104.414 E12.04288
G1 X129.832 Y104.512 E12.04496
G1 X129.946 Y104.59 E12.04772
G1 X130.967 Y104.596 E12.0681
G1 X131.067 Y104.525 E12.07054
G1 X131.11 Y104.431 E12.07261
G1 X131.227 Y103.156 E12.09816
G1 X131.299 Y102.769 E12.10601
G1 X131.537 Y102.43 E12.11428
G1 X131.795 Y102.288 E12.12016
G1 X132.105 Y102.237 E12.12643
G1 X133.127 Y102.233 E12.14682
G1 X133.12 Y111.723 E12.3362
G1 X133.087 Y111.988 E12.34153
G1 X132.996 Y112.268 E12.34741
G1 X132.925 Y112.359 E12.34971
G1 X132.676 Y112.452 E12.35502
G1 X131.941 Y112.452 E12.36968
G1 X131.833 Y112.54 E12.37246
G1 X131.8 Y112.639 E12.37455
G1 X131.8 Y113.612 E12.39396
G1 X131.843 Y113.721 E12.3963
G1 F2700 E7.3963
G1 F300 Z0.32
G0 F6000 X124.37 Y113.922 Z0.32
G1 F300 Z0.12
G1 F2700 E12.3963
G1 F600 X124.642 Y113.951 E12.40176
G1 X125.26 Y113.976 E12.4141
G1 X125.562 Y113.968 E12.42013
G1 X125.854 Y113.944 E12.42598
G1 X126.151 Y113.902 E12.43197
G1 X126.409 Y113.848 E12.43723
G1 X126.679 Y113.773 E12.44282
G1 X127.067 Y113.637 E12.45102
G1 X127.618 Y113.331 E12.4636
G1 X128.042 Y113.01 E12.47421
G1 X128.406 Y112.643 E12.48453
G1 X128.7 Y112.24 E12.49448
G1 X128.947 Y111.785 E12.50482
G1 X129.124 Y111.306 E12.51501
G1 X129.197 Y111.051 E12.5203
G1 X129.259 Y110.757 E12.5263
G1 X129.298 Y110.481 E12.53186
G1 X129.32 Y110.199 E12.5375
G1 X129.329 Y109.913 E12.54321
G1 X129.311 Y109.448 E12.5525
G1 X129.259 Y109.068 E12.56015
G1 X129.152 Y108.588 E12.56997
G1 X128.912 Y108.025 E12.58218
G1 X128.652 Y107.626 E12.59169
G1 X128.398 Y107.314 E12.59971
G1 X128.126 Y107.042 E12.60739
G1 X127.79 Y106.755 E12.61621
G1 X127.41 Y106.491 E12.62544
G1 X126.988 Y106.236 E12.63528
G1 X125.873 Y105.627 E12.66064
G1 X125.518 Y105.412 E12.66892
G1 X125.208 Y105.195 E12.67647
G1 X124.965 Y105.001 E12.68267
G1 X124.725 Y104.769 E12.68934
G1 X124.482 Y104.428 E12.69769
G1 X124.332 Y104.043 E12.70594
G1 X124.284 Y103.612 E12.71459
G1 X124.284 Y103.247 E12.72188
G1 X124.374 Y102.854 E12.72992
G1 X124.539 Y102.538 E12.73704
G1 X124.749 Y102.297 E12.74342
G1 X125.091 Y102.125 E12.75105
G1 X125.399 Y102.047 E12.7574
G1 X125.687 Y102.077 E12.76317
G1 X126.046 Y102.253 E12.77115
G1 X126.28 Y102.484 E12.77771
G1 X126.514 Y102.888 E12.78703
G1 X126.638 Y103.287 E12.79537
G1 X126.753 Y103.819 E12.80623
G1 X126.776 Y104.322 E12.81628
G1 X126.825 Y104.437 E12.81877
G1 X126.93 Y104.506 E12.82128
G1 X127.273 Y104.492 E12.82813
G1 X127.668 Y104.425 E12.83613
G1 X128.129 Y104.242 E12.84603
G1 X128.43 Y104.033 E12.85334
G1 X128.774 Y103.602 E12.86434
G1 X128.894 Y103.167 E12.87335
G1 X128.92 Y102.736 E12.88196
G1 X128.864 Y102.357 E12.88961
G1 X128.784 Y102.097 E12.89504
G1 X128.641 Y101.797 E12.90167
G1 X128.477 Y101.561 E12.90741
G1 X128.177 Y101.247 E12.91607
G1 X127.807 Y101.017 E12.92477
G1 X127.499 Y100.877 E12.93152
G1 X127.126 Y100.747 E12.9394
G1 X126.597 Y100.624 E12.95024
G1 X125.975 Y100.576 E12.96269
G1 X125.436 Y100.577 E12.97345
G1 X124.949 Y100.634 E12.98323
G1 X124.332 Y100.795 E12.99596
G1 X123.828 Y101.039 E13.00713
G1 X123.429 Y101.296 E13.0166
G1 X123.076 Y101.609 E13.02602
G1 X122.771 Y101.967 E13.0354
G1 X122.523 Y102.351 E13.04452
G1 X122.275 Y102.87 E13.056
G1 X122.121 Y103.404 E13.06709
G1 X122.049 Y103.92 E13.07749
G1 X122.04 Y104.327 E13.08562
G1 X122.054 Y104.889 E13.09683
G1 X122.134 Y105.381 E13.10678
G1 X122.231 Y105.781 E13.115
G1 X122.369 Y106.147 E13.1228
G1 X122.537 Y106.479 E13.13023
G1 X122.83 Y106.918 E13.14076
G1 X123.178 Y107.286 E13.15087
G1 X123.499 Y107.57 E13.15942
G1 X123.879 Y107.843 E13.16876
G1 X124.309 Y108.114 E13.1789
G1 X125.424 Y108.718 E13.20421
G1 X125.965 Y109.048 E13.21685
G1 X126.216 Y109.226 E13.22299
G1 X126.419 Y109.403 E13.22837
G1 X126.709 Y109.693 E13.23655
G1 X127.002 Y110.268 E13.24943
G1 X127.063 Y110.803 E13.26018
G1 X126.985 Y111.384 E13.27188
G1 X126.806 Y111.786 E13.28066
G1 X126.512 Y112.179 E13.29045
G1 X126.076 Y112.434 E13.30053
G1 X125.735 Y112.5 E13.30746
G1 X125.412 Y112.519 E13.31392
G1 X124.998 Y112.446 E13.32231
G1 X124.61 Y112.234 E13.33113
G1 X124.351 Y111.948 E13.33883
G1 X124.153 Y111.652 E13.34594
G1 X123.992 Y111.275 E13.35412
G1 X123.891 Y110.946 E13.36099
G1 X123.81 Y110.542 E13.36921
G1 X123.768 Y110.131 E13.37745
G1 X123.756 Y109.647 E13.38712
G1 X123.666 Y109.465 E13.39117
G1 X123.313 Y109.464 E13.39821
G1 X122.999 Y109.52 E13.40458
G1 X122.583 Y109.68 E13.41347
G1 X122.138 Y110.023 E13.42468
G1 X121.86 Y110.532 E13.43626
G1 F553 X121.725 Y111.043 E13.4477
G1 F512.8 X121.724 Y111.476 E13.45781
G1 F502.1 X121.757 Y111.845 E13.46665
G1 F540.5 X121.923 Y112.266 E13.47667
G1 F600 X122.076 Y112.584 E13.48371
G1 X122.334 Y112.941 E13.4925
G1 X122.767 Y113.326 E13.50407
G1 X123.175 Y113.562 E13.51347
G1 X123.619 Y113.753 E13.52312
G1 X123.97 Y113.854 E13.53041
G1 X124.37 Y113.922 E13.5385
G1 F2700 E8.5385
G1 F300 Z0.32
G0 F6000 X121.059 Y113.794 Z0.32
G1 F300 Z0.12
G1 F2700 E13.5385
G1 F600 X121.164 Y113.74 E13.54086
G1 X121.224 Y113.648 E13.54305
G1 X121.225 Y112.331 E13.56933
G1 F540.5 X121.269 Y111.874 E13.5795
G1 F502.1 X121.258 Y111.504 E13.58833
G1 F512.8 X121.259 Y111.003 E13.60003
G1 F553 X121.224 Y110.54 E13.61008
G1 F600 X121.225 Y110.34 E13.61407
G1 X121.165 Y110.197 E13.61717
G1 X121.058 Y110.142 E13.61957
G1 X120.049 Y110.14 E13.63971
G1 X119.906 Y110.273 E13.6436
G1 X119.751 Y111.428 E13.66686
G1 X119.647 Y111.813 E13.67482
G1 X119.542 Y112.032 E13.67966
G1 X119.376 Y112.236 E13.68491
G1 X119.124 Y112.308 E13.69014
G1 X116.444 Y112.311 E13.74363
