;FLAVOR:Marlin
;TIME:441
;Filament used: 0.0524683m
;Layer height: 0.12
;MINX:92.841
;MINY:90.191
;MINZ:0.12
;MAXX:168.037
;MAXY:124.355
;MAXZ:0.36
;TARGET_MACHINE.NAME:Creality Ender-3
;Generated with Cura_SteamEngine 5.7.1
M140 S60
M105
M190 S60
M104 S210
M105
M109 S210
M82 ;absolute extrusion mode
; Ender 3 Custom Start G-code
G92 E0 ; Reset Extruder
G28 ; Home all axes
G1 Z2.0 F3000 ; Move Z Axis up little to prevent scratching of Heat Bed
G1 X0.1 Y20 Z0.3 F5000.0 ; Move to start position
G1 X0.1 Y200.0 Z0.3 F1500.0 E15 ; Draw the first line
G1 X0.4 Y200.0 Z0.3 F5000.0 ; Move to side a little
G1 X0.4 Y20 Z0.3 F1500.0 E30 ; Draw the second line
G92 E0 ; Reset Extruder
G1 Z2.0 F3000 ; Move Z Axis up little to prevent scratching of Heat Bed
G1 X5 Y20 Z0.3 F5000.0 ; Move over to prevent blob squish
G92 E0
G92 E0
G1 F2700 E-5
;LAYER_COUNT:3
;LAYER:0
M107
G0 F6000 X95.891 Y93.524 Z0.12
;TYPE:SKIRT
G1 F2700 E0
G1 F600 X96.578 Y92.884 E0.01874
G1 X97.32 Y92.309 E0.03747
G1 X98.11 Y91.801 E0.05621
G1 X98.94 Y91.366 E0.07491
G1 X99.807 Y91.005 E0.09366
G1 X100.702 Y90.723 E0.11238
G1 X101.618 Y90.52 E0.13111
G1 X102.514 Y90.403 E0.14914
G1 X103.152 Y90.366 E0.16189
G1 X103.76 Y90.353 E0.17403
G1 X119.644 Y90.353 E0.49101
G1 X122.233 Y90.316 E0.54268
G1 X123.827 Y90.248 E0.57452
G1 X123.997 Y90.248 E0.57791
G1 X125.124 Y90.2 E0.60042
G1 X125.753 Y90.191 E0.61298
G1 X126.407 Y90.202 E0.62603
G1 X129.739 Y90.33 E0.69257
G1 X131.769 Y90.353 E0.73309
G1 X142.063 Y90.354 E0.93851
G1 X142.991 Y90.367 E0.95704
G1 X145.635 Y90.367 E1.0098
G1 X146.261 Y90.355 E1.02229
G1 X151.396 Y90.35 E1.12477
G1 X151.841 Y90.336 E1.13365
G1 X154.69 Y90.291 E1.19052
G1 X155.734 Y90.301 E1.21135
G1 X156.671 Y90.357 E1.23008
G1 X157.599 Y90.496 E1.24881
G1 X158.512 Y90.717 E1.26755
G1 X159.401 Y91.018 E1.28629
G1 X160.26 Y91.396 E1.30501
G1 X161.081 Y91.848 E1.32372
G1 X161.832 Y92.35 E1.34174
G1 X162.591 Y92.962 E1.3612
G1 X163.265 Y93.615 E1.37993
G1 X163.879 Y94.324 E1.39865
G1 X164.429 Y95.085 E1.41738
G1 X164.891 Y95.861 E1.43541
G1 X165.314 Y96.738 E1.45484
G1 X165.643 Y97.616 E1.47355
G1 X165.886 Y98.486 E1.49157
G1 X166.102 Y99.737 E1.51691
G1 X166.268 Y101.244 E1.54716
G1 X166.6 Y103.822 E1.59904
G1 X166.988 Y106.292 E1.64893
G1 X167.459 Y108.815 E1.70015
G1 X167.821 Y110.559 E1.7357
G1 X167.966 Y111.505 E1.7548
G1 X168.025 Y112.352 E1.77174
G1 X168.037 Y113.118 E1.78703
G1 X168.028 Y113.74 E1.79944
G1 X167.971 Y114.694 E1.81851
G1 X167.831 Y115.621 E1.83722
G1 X167.61 Y116.535 E1.85599
G1 X167.322 Y117.391 E1.87401
G1 X166.932 Y118.282 E1.89342
G1 X166.479 Y119.105 E1.91217
G1 X165.955 Y119.883 E1.93089
G1 X165.365 Y120.613 E1.94962
G1 X164.712 Y121.287 E1.96835
G1 X164.003 Y121.901 E1.98706
G1 X163.242 Y122.45 E2.00579
G1 X162.466 Y122.913 E2.02382
G1 X161.588 Y123.335 E2.04326
G1 X160.709 Y123.665 E2.062
G1 X159.805 Y123.915 E2.08072
G1 X158.879 Y124.086 E2.09951
G1 X157.75 Y124.181 E2.12212
G1 X157.109 Y124.195 E2.13491
G1 X151.763 Y124.189 E2.2416
G1 X149.502 Y124.206 E2.28672
G1 X149.053 Y124.189 E2.29569
G1 X147.904 Y124.194 E2.31862
G1 X146.623 Y124.176 E2.34418
G1 X143.961 Y124.176 E2.39731
G1 X142.832 Y124.195 E2.41984
G1 X137.744 Y124.187 E2.52138
G1 X136.585 Y124.195 E2.54451
G1 X130.192 Y124.197 E2.67209
G1 X127.646 Y124.269 E2.72291
G1 X126.774 Y124.317 E2.74034
G1 X125.743 Y124.355 E2.76093
G1 X124.945 Y124.354 E2.77686
G1 X122.962 Y124.274 E2.81646
G1 X119.11 Y124.195 E2.89335
G1 X103.994 Y124.194 E3.195
G1 X103.279 Y124.183 E3.20927
G1 X102.342 Y124.127 E3.22801
G1 X101.414 Y123.988 E3.24673
G1 X100.501 Y123.767 E3.26548
G1 X99.645 Y123.479 E3.2835
G1 X98.753 Y123.089 E3.30293
G1 X97.932 Y122.636 E3.32164
G1 X97.181 Y122.134 E3.33967
G1 X96.422 Y121.522 E3.35913
G1 X95.748 Y120.869 E3.37785
G1 X95.134 Y120.16 E3.39657
G1 X94.584 Y119.399 E3.41531
G1 X94.122 Y118.623 E3.43333
G1 X93.699 Y117.746 E3.45276
G1 X93.37 Y116.868 E3.47147
G1 X93.119 Y115.963 E3.49022
G1 X92.948 Y115.035 E3.50905
G1 X92.853 Y113.889 E3.53199
G1 X92.841 Y113.132 E3.5471
G1 X92.858 Y112.199 E3.56573
G1 X92.906 Y111.065 E3.58838
G1 X92.98 Y108.471 E3.64016
G1 X92.98 Y105.993 E3.68961
G1 X92.896 Y103.63 E3.7368
G1 X92.844 Y101.166 E3.78598
G1 X92.865 Y100.263 E3.80401
G1 X92.974 Y99.295 E3.82345
G1 X93.163 Y98.376 E3.84217
G1 X93.432 Y97.476 E3.86092
G1 X93.765 Y96.637 E3.87893
G1 X94.203 Y95.768 E3.89835
G1 X94.698 Y94.97 E3.91709
G1 X95.24 Y94.248 E3.93511
G1 X95.891 Y93.524 E3.95454
G0 F6000 X96.164 Y93.816
G1 F600 X96.824 Y93.2 E3.97255
G1 X97.537 Y92.645 E3.99058
G1 X98.296 Y92.155 E4.00861
G1 X99.095 Y91.735 E4.02663
G1 X99.928 Y91.386 E4.04465
G1 X100.789 Y91.113 E4.06268
G1 X101.67 Y90.917 E4.08069
G1 X102.566 Y90.8 E4.09872
G1 X103.161 Y90.766 E4.11061
G1 X103.769 Y90.753 E4.12275
G1 X119.65 Y90.753 E4.43967
G1 X122.25 Y90.716 E4.49156
G1 X123.844 Y90.648 E4.5234
G1 X124.014 Y90.648 E4.52679
G1 X125.13 Y90.6 E4.54908
G1 X125.746 Y90.591 E4.56138
G1 X126.392 Y90.602 E4.57427
G1 X129.724 Y90.73 E4.64082
G1 X131.764 Y90.753 E4.68153
G1 X142.057 Y90.754 E4.88694
G1 X142.985 Y90.767 E4.90546
G1 X145.643 Y90.767 E4.9585
G1 X146.261 Y90.755 E4.97084
G1 X151.409 Y90.75 E5.07357
G1 X151.847 Y90.736 E5.08231
G1 X154.686 Y90.691 E5.13898
G1 X155.711 Y90.7 E5.15943
G1 X156.613 Y90.753 E5.17746
G1 X157.506 Y90.885 E5.19548
G1 X158.384 Y91.096 E5.2135
G1 X159.24 Y91.384 E5.23152
G1 X160.068 Y91.747 E5.24956
G1 X160.859 Y92.181 E5.26757
G1 X161.61 Y92.683 E5.2856
G1 X162.313 Y93.25 E5.30362
G1 X162.963 Y93.877 E5.32164
G1 X163.555 Y94.559 E5.33967
G1 X164.085 Y95.29 E5.35768
G1 X164.547 Y96.066 E5.37571
G1 X164.94 Y96.879 E5.39373
G1 X165.258 Y97.724 E5.41174
G1 X165.501 Y98.594 E5.42977
G1 X165.704 Y99.781 E5.4538
G1 X165.871 Y101.295 E5.4842
G1 X166.203 Y103.873 E5.53607
G1 X166.595 Y106.365 E5.58641
G1 X167.067 Y108.896 E5.63779
G1 X167.429 Y110.64 E5.67334
G1 X167.567 Y111.533 E5.69137
G1 X167.625 Y112.358 E5.70787
G1 X167.637 Y113.112 E5.72292
G1 X167.628 Y113.734 E5.73534
G1 X167.575 Y114.635 E5.75335
G1 X167.442 Y115.528 E5.77137
G1 X167.231 Y116.407 E5.78941
G1 X166.943 Y117.263 E5.80743
G1 X166.581 Y118.09 E5.82544
G1 X166.147 Y118.882 E5.84347
G1 X165.644 Y119.632 E5.86149
G1 X165.077 Y120.335 E5.87951
G1 X164.45 Y120.985 E5.89754
G1 X163.768 Y121.577 E5.91556
G1 X163.037 Y122.106 E5.93356
G1 X162.261 Y122.569 E5.9516
G1 X161.447 Y122.961 E5.96963
G1 X160.602 Y123.28 E5.98765
G1 X159.732 Y123.522 E6.00567
G1 X158.845 Y123.687 E6.02368
G1 X157.716 Y123.782 E6.04629
G1 X157.109 Y123.795 E6.0584
G1 X151.76 Y123.789 E6.16515
G1 X149.517 Y123.806 E6.20991
G1 X149.066 Y123.789 E6.21892
G1 X147.91 Y123.794 E6.24199
G1 X146.629 Y123.776 E6.26755
G1 X143.954 Y123.776 E6.32094
G1 X142.833 Y123.795 E6.34331
G1 X137.742 Y123.787 E6.44491
G1 X136.585 Y123.795 E6.468
G1 X130.181 Y123.797 E6.5958
G1 X127.635 Y123.869 E6.64662
G1 X126.759 Y123.917 E6.66413
G1 X125.744 Y123.955 E6.6844
G1 X124.961 Y123.954 E6.70003
G1 X122.978 Y123.874 E6.73963
G1 X119.118 Y123.795 E6.81668
G1 X104 Y123.794 E7.11837
G1 X103.302 Y123.784 E7.13231
G1 X102.4 Y123.731 E7.15034
G1 X101.507 Y123.599 E7.16835
G1 X100.629 Y123.388 E7.18637
G1 X99.773 Y123.1 E7.20439
G1 X98.946 Y122.738 E7.22241
G1 X98.154 Y122.303 E7.24044
G1 X97.403 Y121.801 E7.25847
G1 X96.7 Y121.234 E7.27649
G1 X96.05 Y120.607 E7.29452
G1 X95.458 Y119.925 E7.31254
G1 X94.928 Y119.194 E7.33056
G1 X94.466 Y118.418 E7.34858
G1 X94.073 Y117.605 E7.3666
G1 X93.755 Y116.76 E7.38462
G1 X93.512 Y115.89 E7.40264
G1 X93.347 Y115.002 E7.42067
G1 X93.252 Y113.856 E7.44362
G1 X93.241 Y113.139 E7.45793
G1 X93.258 Y112.216 E7.47635
G1 X93.306 Y111.082 E7.499
G1 X93.38 Y108.482 E7.55091
G1 X93.38 Y105.993 E7.60058
G1 X93.296 Y103.622 E7.64792
G1 X93.244 Y101.175 E7.69677
G1 X93.265 Y100.272 E7.71479
G1 X93.366 Y99.375 E7.7328
G1 X93.546 Y98.49 E7.75083
G1 X93.804 Y97.624 E7.76886
G1 X94.137 Y96.785 E7.78687
G1 X94.543 Y95.978 E7.8049
G1 X95.018 Y95.21 E7.82292
G1 X95.56 Y94.488 E7.84094
G1 X96.164 Y93.816 E7.85897
G1 F2700 E2.85897
;MESH:Letras.stl
G0 F6000 X103.853 Y111.986
G0 X111.584 Y113.392
;TYPE:WALL-OUTER
G1 F2700 E7.85897
G1 F592.6 X110.379 Y113.387 E7.88332
G1 F502.1 X110.01 Y113.319 E7.89227
G1 F441.2 X107.004 Y113.321 E7.97385
G1 F509.6 X105.92 Y113.392 E7.99938
G1 F591.1 X104.668 Y113.386 E8.02474
G1 F540.5 X104.342 Y113.354 E8.03199
G1 F506.3 X103.672 Y113.356 E8.04784
G1 F508.5 X103.672 Y112.884 E8.05895
G1 F506.3 X104.301 Y112.883 E8.07383
G1 F540.5 X104.53 Y112.752 E8.07967
G1 F591.1 X104.726 Y112.574 E8.08503
G1 F600 X104.866 Y112.304 E8.0911
G1 X104.954 Y111.834 E8.10064
G1 X104.964 Y102.865 E8.27963
G1 X104.929 Y102.54 E8.28615
G1 X104.814 Y102.143 E8.2944
G1 F574.2 X104.574 Y101.832 E8.30259
G1 F528.6 X104.224 Y101.66 E8.31143
G1 F508.5 X103.672 Y101.66 E8.32443
G1 X103.672 Y101.188 E8.33554
G1 X104.224 Y101.188 E8.34854
G1 F550.5 X104.661 Y101.153 E8.35808
G1 F600 X105.92 Y101.152 E8.3832
G1 F507.4 X106.91 Y101.225 E8.40663
G1 F441.2 X109.484 Y101.223 E8.47648
G1 F438 X109.655 Y101.23 E8.48116
G1 F493.8 X110.044 Y101.153 E8.49078
G1 F586.8 X111.124 Y101.152 E8.51282
G1 F597 X111.122 Y102.694 E8.54374
G1 F512.8 X111.059 Y103.074 E8.55274
G1 F466 X111.074 Y103.966 E8.57566
G1 F480 X110.596 Y103.966 E8.58758
G1 F466 X110.533 Y103.127 E8.6092
G1 F512.8 X110.394 Y102.767 E8.61821
G1 F597 X110.286 Y102.451 E8.62491
G1 F600 X110.102 Y102.147 E8.632
G1 F574.2 X109.836 Y101.92 E8.63929
G1 F486.8 X109.557 Y101.765 E8.64714
G1 F438 X106.957 Y101.767 E8.71822
G1 F507.4 X106.804 Y102.036 E8.72553
G1 F600 X106.807 Y106.535 E8.81531
G1 F516.1 X106.981 Y106.728 E8.82134
G1 F453.7 X110.104 Y106.728 E8.90376
G1 F454.5 X110.104 Y107.256 E8.91767
G1 F453.7 X106.981 Y107.256 E9.00009
G1 F516.1 X106.804 Y107.452 E9.00622
G1 F600 X106.804 Y112.508 E9.10712
G1 F509.6 X107.004 Y112.779 E9.11503
G1 F441.2 X109.963 Y112.777 E9.19534
G1 F471.5 X110.315 Y112.59 E9.20546
G1 F550.5 X110.537 Y112.387 E9.212
G1 F600 X110.752 Y112.04 E9.22015
G1 F510.6 X110.976 Y111.484 E9.23421
G1 F464.2 X111.073 Y110.587 E9.25748
G1 F474.3 X111.545 Y110.587 E9.26939
G1 F454.5 X111.514 Y111.52 E9.29398
G1 F510.6 X111.584 Y112.091 E9.30747
G1 F600 X111.584 Y113.392 E9.33343
G0 F6000 X110.671 Y113.011
;TYPE:SKIN
G1 F541.8 X110.376 Y112.998 E9.33996
G1 X110.6 Y112.846 E9.34594
G1 X110.817 Y112.641 E9.35254
G1 X111.075 Y112.244 E9.36301
G1 X111.18 Y112.017 E9.36853
G1 X111.203 Y112.12 E9.37087
G1 X111.203 Y113.011 E9.39056
G1 X110.671 Y113.011 E9.40232
G0 F6000 X110.133 Y113.145
G0 X107.04 Y113.065
G0 X105.922 Y113.231
G0 X104.727 Y113.231
G0 X104.329 Y113.13
G0 X104.556 Y112.966
G0 X104.75 Y113.032
G1 F600 X104.909 Y112.912 E9.40629
G1 X105.08 Y112.688 E9.41192
G1 X105.237 Y112.31 E9.42008
G1 X105.306 Y111.897 E9.42844
G1 X105.324 Y102.841 E9.60916
G1 X105.289 Y102.511 E9.61578
G1 X105.142 Y101.977 E9.62684
G1 X104.895 Y101.654 E9.63495
G1 X104.706 Y101.512 E9.63967
G1 X105.909 Y101.512 E9.66368
G1 X106.654 Y101.621 E9.6787
G1 X106.444 Y101.989 E9.68716
G1 X106.45 Y106.559 E9.77836
G1 X106.516 Y106.766 E9.78269
G1 X106.733 Y106.991 E9.78893
G1 X106.517 Y107.219 E9.7952
G1 X106.448 Y107.481 E9.80061
G1 X106.444 Y112.492 E9.90061
G1 X106.482 Y112.611 E9.9031
G1 X106.714 Y112.925 E9.91089
G1 X105.902 Y113.032 E9.92723
G1 X104.75 Y113.032 E9.95022
G0 F6000 X105.311 Y112.665
G1 F600 X105.478 Y112.832 E9.95494
G0 F6000 X106.025 Y112.813
G1 F600 X105.451 Y112.239 E9.97114
G0 F6000 X105.502 Y111.725
G1 F600 X106.244 Y112.467 E9.99208
G0 F6000 X106.244 Y111.901
G1 F600 X105.504 Y111.161 E10.01296
G0 F6000 X105.505 Y110.596
G1 F600 X106.244 Y111.335 E10.03382
G0 F6000 X106.244 Y110.77
G1 F600 X105.507 Y110.032 E10.05463
G0 F6000 X105.507 Y109.467
G1 F600 X106.244 Y110.204 E10.07543
G0 F6000 X106.244 Y109.638
G1 F600 X105.509 Y108.903 E10.09617
G0 F6000 X105.51 Y108.339
G1 F600 X106.244 Y109.073 E10.11689
G0 F6000 X106.244 Y108.507
G1 F600 X105.512 Y107.774 E10.13756
G0 F6000 X105.513 Y107.21
G1 F600 X106.244 Y107.941 E10.15819
G0 F6000 X106.268 Y107.399
G1 F600 X105.514 Y106.645 E10.17947
G0 F6000 X105.515 Y106.081
G1 F600 X106.441 Y107.006 E10.20559
G0 F6000 X106.253 Y106.253
G1 F600 X105.517 Y105.517 E10.22636
G0 F6000 X105.518 Y104.952
G1 F600 X106.252 Y105.686 E10.24708
G0 F6000 X106.251 Y105.119
G1 F600 X105.519 Y104.388 E10.26772
G0 F6000 X105.52 Y103.823
G1 F600 X106.25 Y104.553 E10.28832
G0 F6000 X106.248 Y103.986
G1 F600 X105.522 Y103.259 E10.30883
G0 F6000 X105.507 Y102.678
G1 F600 X106.247 Y103.419 E10.32973
G0 F6000 X106.246 Y102.852
G1 F600 X105.33 Y101.936 E10.35558
G0 F6000 X105.672 Y101.712
G1 F600 X106.245 Y102.285 E10.37175
G1 F2700 E5.37175
G0 F6000 X107.659 Y102.69
G0 X109.558 Y102.992
G0 X110.742 Y102.637
G1 F2700 E10.37175
G1 F560.7 X110.624 Y102.298 E10.37941
G1 X110.407 Y101.915 E10.38881
G1 X109.986 Y101.561 E10.40056
G1 X110.198 Y101.527 E10.40514
G1 X110.745 Y101.524 E10.41682
G1 X110.742 Y102.637 E10.44059
G1 F2700 E5.44059
G0 F6000 X110.877 Y102.979
G0 X110.913 Y103.805
G0 X110.913 Y104.884
G0 X111.777 Y107.608
G0 X113.096 Y111.986
G0 X112.916 Y113.356
;TYPE:WALL-OUTER
G1 F2700 E10.44059
G1 F508.5 X112.916 Y112.884 E10.4517
G1 F506.3 X113.545 Y112.883 E10.46658
G1 F540.5 X113.774 Y112.752 E10.47242
G1 F591.1 X113.999 Y112.548 E10.47858
G1 F600 X114.121 Y112.256 E10.48489
G1 X114.197 Y111.836 E10.49341
G1 X114.203 Y102.823 E10.67327
G1 X114.163 Y102.499 E10.67979
G1 X114.068 Y102.177 E10.68649
G1 X113.898 Y101.909 E10.69282
G1 F585.4 X113.65 Y101.741 E10.69895
G1 F535.7 X113.367 Y101.662 E10.70551
G1 F506.3 X112.916 Y101.66 E10.71618
G1 F508.5 X112.916 Y101.188 E10.72729
G1 F506.3 X113.409 Y101.19 E10.73895
G1 F525.2 X113.805 Y101.152 E10.74802
G1 F572.8 X115.164 Y101.152 E10.77643
G1 F507.4 X116.154 Y101.225 E10.79986
G1 F441.2 X118.728 Y101.223 E10.86972
G1 F438 X118.899 Y101.23 E10.8744
G1 F493.8 X119.288 Y101.153 E10.88401
G1 F586.8 X120.368 Y101.152 E10.90605
G1 F597 X120.366 Y102.694 E10.93697
G1 F512.8 X120.303 Y103.074 E10.94597
G1 F465.1 X120.318 Y103.966 E10.96893
G1 F479 X119.838 Y103.966 E10.98093
G1 F465.1 X119.777 Y103.127 E11.00259
G1 F516.1 X119.525 Y102.448 E11.01939
G1 F600 X119.346 Y102.147 E11.02638
G1 F574.2 X119.08 Y101.92 E11.03367
G1 F486.8 X118.801 Y101.765 E11.04152
G1 F438 X116.201 Y101.767 E11.1126
G1 F507.4 X116.048 Y102.036 E11.11991
G1 F600 X116.051 Y106.535 E11.20969
G1 F516.1 X116.225 Y106.728 E11.21572
G1 F453.7 X119.344 Y106.728 E11.29803
G1 F454.5 X119.344 Y107.256 E11.31194
G1 F453.7 X116.225 Y107.256 E11.39426
G1 F516.1 X116.048 Y107.452 E11.40039
G1 F600 X116.048 Y112.508 E11.50128
G1 F509.6 X116.248 Y112.779 E11.5092
G1 F441.2 X119.195 Y112.777 E11.58918
G1 F507.4 X119.583 Y112.568 E11.59958
G1 F600 X119.781 Y112.387 E11.60493
G1 X120 Y112.027 E11.61334
G1 F522.9 X120.199 Y111.521 E11.62579
G1 F452.8 X120.217 Y111.493 E11.62667
G1 F463.3 X120.317 Y110.587 E11.65023
G1 F474.3 X120.79 Y110.587 E11.66217
G1 F452.8 X120.757 Y111.529 E11.68709
G1 F509.6 X120.828 Y112.075 E11.70003
G1 F600 X120.828 Y113.392 E11.72632
G1 F594.1 X119.616 Y113.388 E11.75074
G1 F503.1 X119.242 Y113.319 E11.75979
G1 F441.2 X116.248 Y113.321 E11.84105
G1 F509.6 X115.164 Y113.392 E11.86658
G1 F591.1 X113.912 Y113.386 E11.89194
G1 F540.5 X113.586 Y113.354 E11.8992
G1 F506.3 X112.916 Y113.356 E11.91504
G0 F6000 X113.152 Y113.125
G0 X113.801 Y112.965
G0 X113.988 Y113.033
;TYPE:SKIN
G1 F600 X114.181 Y112.89 E11.91983
G1 X114.351 Y112.641 E11.92585
G1 X114.463 Y112.353 E11.93202
G1 X114.549 Y111.905 E11.94112
G1 X114.559 Y102.775 E12.12332
G1 X114.519 Y102.455 E12.12975
G1 X114.409 Y102.054 E12.13805
